!!!COM: Palestrina, Giovanni Perluigi da
!!!OPR: Missa Beatus Laurentius
!!!OTL: Agnus II
**kern	**kern	**kern	**kern	**kern	**kern
*Ibass	*Itenor	*Itenor	*Itenor	*Icalto	*Icant
!Bassus	!Tenor 3	!Tenor 2	!Tenor 1	!Altus	!Cantus
*clefF4	*clefGv2	*clefGv2	*clefGv2	*clefG2	*clefG2
*k[]	*k[]	*k[]	*k[]	*k[]	*k[]
*G:mix	*G:mix	*G:mix	*G:mix	*G:mix	*G:mix
*M4/2	*M4/2	*M4/2	*M4/2	*M4/2	*M4/2
=1	=1	=1	=1	=1	=1
1G	0r	0r	0r	1.d	1r
1G	.	.	.	.	[1g
.	.	.	.	2d	.
=2	=2	=2	=2	=2	=2
1c	0r	0r	2r	2e	2g]
.	.	.	1c	1g	2g
1A	.	.	.	.	2a
.	.	.	2c	2f#	[2cc
=3	=3	=3	=3	=3	=3
1G	0r	0r	1d	1g	2cc]
.	.	.	.	.	2b
1A	.	.	2f	2r	2.cc
.	.	.	2e	[2cc	.
.	.	.	.	.	4dd
=4	=4	=4	=4	=4	=4
1G	0r	0r	2.g	2cc]	2ee
.	.	.	.	2b	2dd
.	.	.	4f	.	.
2A	.	.	2e	[1a	2cc
4F	.	.	[2f	.	4a
4G	.	.	.	.	4b
=5	=5	=5	=5	=5	=5
4A	0r	1r	2f]	2a]	4cc
4B	.	.	.	.	4dd
1c	.	.	2e	2g	4ee
.	.	.	.	.	4ff
.	.	1G	2.d	1g	1gg
4B	.	.	.	.	.
4A	.	.	4c	.	.
=6	=6	=6	=6	=6	=6
1B	0r	1G	1d	1g	2r
.	.	.	.	.	4gg
.	.	.	.	.	4ff
4c	.	1c	1e	2g	4ee
4B	.	.	.	.	4dd
4A	.	.	.	[2a	[2cc
4G	.	.	.	.	.
=7	=7	=7	=7	=7	=7
1F	1r	1A	1f	2a]	2cc]
.	.	.	.	2f	2a
1C	1c	1G	2e	4g	[1cc
.	.	.	.	4f	.
.	.	.	2g	4e	.
.	.	.	.	4d	.
=8	=8	=8	=8	=8	=8
0F	1c	0A	2.f	2c	0cc]
.	.	.	.	4f	.
.	.	.	8e	4g	.
.	.	.	8d	.	.
.	1f	.	2c	4a	.
.	.	.	.	4b	.
.	.	.	2c	[2cc	.
=9	=9	=9	=9	=9	=9
1r	1d	1G	1g	2cc]	1dd
.	.	.	.	2b	.
1F	1c	1A	1r	2cc	2r
.	.	.	.	[2a	[2ff
=10	=10	=10	=10	=10	=10
0D	0d	1F	1f	4a]	2ff]
.	.	.	.	4f	.
.	.	.	.	2b-	2dd
.	.	1F	2f	1a	[1ff
.	.	.	[2a	.	.
=11	=11	=11	=11	=11	=11
2.F	1c	1A	4a]	1f	2ff]
.	.	.	4g	.	.
.	.	.	2a	.	2cc
4E	.	.	.	.	.
4D	1d	1A	1f	1r	1ff
4C	.	.	.	.	.
2D	.	.	.	.	.
=12	=12	=12	=12	=12	=12
2.E	1B	1G	1g	2r	1ee
.	.	.	.	2g	.
4F	.	.	.	.	.
1G	1B	1G	2r	2g	[1dd
.	.	.	2G	[2g	.
=13	=13	=13	=13	=13	=13
1D	1d	0r	1A	2g]	1dd]
.	.	.	.	2f#	.
1G	1d	.	1B	1g	2dd
.	.	.	.	.	[2gg
=14	=14	=14	=14	=14	=14
0C	1c	0r	4c	2r	4gg]
.	.	.	4d	.	4ff
.	.	.	4e	1cc	4ee
.	.	.	4f	.	4dd
.	1c	.	4g	.	2ee
.	.	.	4a	.	.
.	.	.	[2g	2b	2ee
=15	=15	=15	=15	=15	=15
1r	0r	1d	2g]	1a	1dd
.	.	.	2f#	.	.
[1G	.	1G	1g	2d	2dd
.	.	.	.	2d	2dd
=16	=16	=16	=16	=16	=16
1G]	0r	1d	0r	1g	2b
.	.	.	.	.	2.dd
2.E	.	1e	.	1g	.
.	.	.	.	.	4cc
.	.	.	.	.	[2cc
4F	.	.	.	.	.
=17	=17	=17	=17	=17	=17
1G	1g	1d	2r	1r	2cc]
.	.	.	2d	.	2b
1A	1e	1r	2c	2r	1cc
.	.	.	2A	2a	.
=18	=18	=18	=18	=18	=18
1G	1g	1r	2B	2d	1b
.	.	.	2e	1g	.
1r	1a	1d	1d	.	1dd
.	.	.	.	2f#	.
=19	=19	=19	=19	=19	=19
0G	1g	1B	2.G	[0g	2dd
.	.	.	.	.	2dd
.	.	.	4A	.	.
.	1r	1d	4B	.	1b
.	.	.	4c	.	.
.	.	.	[2d	.	.
=20	=20	=20	=20	=20	=20
2.E	1r	1e	2d]	1g]	2b
.	.	.	1c	.	2g
4F	.	.	.	.	.
1G	1g	1d	.	1r	2dd
.	.	.	2B	.	2dd
=21	=21	=21	=21	=21	=21
2C	1e	1c	1c	2r	1ee
2c	.	.	.	2.g	.
2c	1g	1d	1G	.	1dd
.	.	.	.	4a	.
2B	.	.	.	2b	.
=22	=22	=22	=22	=22	=22
2.A	1a	1c	2r	2cc	2r
.	.	.	2c	4c	2ee
8G	.	.	.	4d	.
8F	.	.	.	.	.
1E	1g	1G	2c	4e	1ee
.	.	.	.	4f	.
.	.	.	2B	2g	.
=23	=23	=23	=23	=23	=23
1D	1f	1A	1d	2r	2a
.	.	.	.	2a	2ff
1r	1g	1r	1c	2cc	2ff
.	.	.	.	2cc	2ee
=24	=24	=24	=24	=24	=24
2r	1f	0r	2d	1a	2dd
2F	.	.	4A	.	4cc
.	.	.	4B	.	4b
2F	1c	.	4c	2f	2a
.	.	.	4d	.	.
2E	.	.	2e	2g	2g
=25	=25	=25	=25	=25	=25
0D	1d	2r	1A	4f	1dd
.	.	.	.	4g	.
.	.	2F	.	4a	.
.	.	.	.	4g	.
.	1r	1A	1d	4f	2r
.	.	.	.	4e	.
.	.	.	.	2f	2dd
=26	=26	=26	=26	=26	=26
2C	0r	0c	0g	2e	2ee
1C	.	.	.	2c	2.gg
.	.	.	.	2e	.
.	.	.	.	.	4ff
2E	.	.	.	[2g	2ee
=27	=27	=27	=27	=27	=27
0G	2r	0B	2r	2g]	2.dd
.	2B	.	2G	2d	.
.	.	.	.	.	4cc
.	1d	.	2B	1g	4b
.	.	.	.	.	4g
.	.	.	[2d	.	2gg
=28	=28	=28	=28	=28	=28
0D	0f	0A	2d]	1a	1ff
.	.	.	2A	.	.
.	.	.	2r	[1a	1dd
.	.	.	2F	.	.
=29	=29	=29	=29	=29	=29
0r	0e	0c	2A	2a]	2r
.	.	.	2c	2g	1cc
.	.	.	2A	1a	.
.	.	.	[2c	.	2ee
=30	=30	=30	=30	=30	=30
0G	0d	1d	2c]	0g	1.gg
.	.	.	4B	.	.
.	.	.	4A	.	.
.	.	1r	1B	.	.
.	.	.	.	.	2g
=31	=31	=31	=31	=31	=31
0F	0f	1c	4c	1r	2.a
.	.	.	4B	.	.
.	.	.	4A	.	.
.	.	.	4G	.	4b
.	.	1A	2F	1c	4cc
.	.	.	.	.	4a
.	.	.	2A	.	[2cc
=32	=32	=32	=32	=32	=32
2.C	1g	1c	0G	1e	4cc]
.	.	.	.	.	4dd
.	.	.	.	.	2.ee
4D	.	.	.	.	.
1E	1r	1B	.	2.g	.
.	.	.	.	.	4dd
.	.	.	.	.	4b
.	.	.	.	8f	4cc
.	.	.	.	8g	.
=33	=33	=33	=33	=33	=33
1F	1f	1A	0r	2a	4dd
.	.	.	.	.	4cc
.	.	.	.	2f	1cc
2r	1d	1G	.	1g	.
2G	.	.	.	.	2b
=34	=34	=34	=34	=34	=34
4F	1f	0r	2r	1a	1cc
4G	.	.	.	.	.
4A	.	.	2F	.	.
4B	.	.	.	.	.
1c	1e	.	2A	2r	1cc
.	.	.	[2c	[2g	.
=35	=35	=35	=35	=35	=35
1G	1d	0r	2c]	2g]	1dd
.	.	.	2B	2g	.
2E	1c	.	4c	2g	4ee
.	.	.	4B	.	4dd
[2F	.	.	4A	[2a	4cc
.	.	.	4G	.	4b
=36	=36	=36	=36	=36	=36
2F]	0r	1r	2F	2a]	2cc
2E	.	.	2G	1g	2cc
1D	.	1d	1A	.	1dd
.	.	.	.	2f#	.
=37	=37	=37	=37	=37	=37
2G	0r	1B	2G	2g	0dd
2G	.	.	2g	2b	.
2D	.	1d	2f#	2a	.
2G	.	.	2g	2b	.
=38	=38	=38	=38	=38	=38
1C	1r	1c	2e	1cc	2r
.	.	.	2e	.	2g
1G	1g	1B	1d	2dd	2b
.	.	.	.	2g	[2dd
=39	=39	=39	=39	=39	=39
1r	1e	1A	2r	1a	2dd]
.	.	.	1e	.	2cc
1C	1g	2r	.	1cc	1ee
.	.	[2c	2e	.	.
=40	=40	=40	=40	=40	=40
1F	1f	2c]	1.c	2a	1ff
.	.	2A	.	2.cc	.
2C	1e	1c	.	.	2gg
.	.	.	.	4b	.
2C	.	.	2e	[2a	2cc
=41	=41	=41	=41	=41	=41
0D	[0d	1B	2f#	2a]	1r
.	.	.	2g	1g	.
.	.	1A	2a	.	1dd
.	.	.	[2d	2f#	.
=42	=42	=42	=42	=42	=42
[0G	1d_	[0G	4d]	[0g	2.b
.	.	.	4c	.	.
.	.	.	4B	.	.
.	.	.	4A	.	4cc
.	1d_	.	1B	.	1dd
=43	=43	=43	=43	=43	=43
0G]	0d]	0G]	0B	0g]	0dd
==	==	==	==	==	==
*-	*-	*-	*-	*-	*-
!!!CDT: 1525/^1526/-1594/2/2
!!!OCY: Italia
!!!AGN: Mass (Paraphrase)
!!!AST: renaissance, vocal
!!!ASW: Antiphon
!!!PWK: Masses, Book 8
!!!RNB: Cadence finals: C
!!!YOR: Le Opere Complete, v. 24, p. 194
!!!YOO: Rome, Italy: Fratelli Scalera
!!!END: 1992//
!!!EED: John Miller
!!!YEC: Copyright 2000, John Miller
!!!YEN: United States of America
!!!YEM: Rights to all derivative electronic formats reserved.
!!!YEM: Refer to licensing agreement for further details.
!!!YEM: This file must be accompanied by the licensing agreement.
!!!YEM: A copy of the licensing agreement may be found at http://www.music-cog.ohio-state.edu/HumdrumDatabases/Palestrina/license.txt
!!!EMD: converted to Humdrum by Bret Aarden
